X:1
T:You Don't Know My Mind
M:4/4
L:1/8
K:C
 G2| c2 _BA G E2 G| c2_B-A G2 AG| cc _BA GA GE| GA _ED C4| F F2 _E- C4|\
 F ^F2 G- G2 E2| C8-| C6 z G| _B2 A2 G F3| EE F^F G2 E2| C8-| C6||\
